X:1
T:Title
%%score { 1 | 2 }
L:1/8
M:3/4
K:Db
V:1 treble nm="Grand Piano"
V:2 bass 
V:1
 z2 z2[Q:1/4=100] DD | [Fd]3 [Fd] [Gc][GB] | [FA]2 [DF]2 [DF][FA] | A3 B AG |[M:2/4] F4 | %5
[M:1/4] [DF][DF] |[M:3/4] d3 d cB | [GB]2 [FA]2 =GA | =G[Gc] [GB]2 E2 |[M:2/4] A4 | %10
[M:1/4] [EG][DF] |[M:3/4] [CE]3 [DF] [EG][FA] | [DG]2 [DF]2 [FA][EF] | [E=G]3 [Gc] [GB]E | %14
[M:2/4] A4 |[M:1/4] Bc |[M:3/4] d3 d A[Ad] | c2 B2 GB | AB A2 G2 |[M:2/4] F4 |[M:1/4] [FA][FA] | %21
[M:3/4] [Af]3 [Ge] [Fd]c | e2 d2 cB | AD [DF]2 [CE]2 |[M:2/4] [A,D]4 |] %25
V:2
 z2 z2 [D,F,A,][D,F,A,] | [D,A,]3 [D,D] [G,D][G,D] | [D,D]2 [D,A,]2 [D,A,][D,D] | %3
 [A,CEG]3 [A,CG] [A,DF][K:bass][A,CE] |[M:2/4] [D,A,D]4 |[M:1/4] [B,,B,][B,,B,] | %6
[M:3/4][K:treble] [B,DF]3 [B,DF][K:bass] [G,EG][G,DG] | [D,D]2 [D,D]2 [E,DE][E,CE] | %8
 [E,DE][E,D] [E,E]2 [E,G,B,D]2 |[M:2/4] [A,C]4 |[M:1/4] [A,,A,][A,,A,] | %11
[M:3/4] [A,,A,]3 [A,,A,] [A,,A,][A,,A,] | [D,B,]2 [D,A,]2 [D,D][D,A,] | [E,D]3 [E,E] [E,D][E,B,D] | %14
[M:2/4] [A,C]4 |[M:1/4] [G,CE][G,B,E] |[M:3/4] [F,A,F]3 [F,DF] [F,DF][F,D] | %17
 [G,EG]2 [G,DG]2 [G,B,D][K:treble][G,DG] | [A,DF][A,CG] [A,DF]2 [A,CE]2 |[M:2/4][K:bass] [D,A,D]4 | %20
[M:1/4] [D,D][D,D] |[M:3/4] [D,D]3 [D,D] [D,D][K:treble][G,EG] | [G,CG]2 [G,B,G]2 [G,EG][G,DG] | %23
 [A,DF][K:bass][A,,F,A,] [A,,A,]2 [A,,G,]2 |[M:2/4] [D,F,]4 |] %25

